X:61
T:Saute lapin
Z:Transcrit et/ou corrig? par Michel BELLON - 2007-09-06
Z:Pour toute observation mailto:galouvielle@free.fr
M:6/8
O:France
R:Rondeau
Z:Richard Robinson <URL:http://www.leeds.ac.uk/music/Info/RRTuneBk/contact.html>
K:G
GFG A2A | ABc d3 | dBd e2d | cBA B2G|\
GFG A2A | ABc d3 | dBd e2d | cBA G3 ::
ded A3 | ded A3 | c2c B2B | AGA B2G | \
ded A3 | ded A3 | c2c B2B | AGF G3 :|

<end>
<start>
